!!!OTL: Der Gluecksjaeger Es reitet ein Edelmann durch das Holz,
!!!ARE: Europa, Mitteleuropa, Deutschland (BRD), Baden, Freiburg i. Br., Hugstetten
!!!YOR: 6, S. 192
!!    1848 aufgezeichnet
!!!SCT: Q0134B
!!!YEM: Copyright 1995, estate of Helmut Schaffrath.
**kern
*ICvox
*Ivox
*M6/8
*k[f#]
*G:
{8a
=1
8.a
16a
8a
8a
8g
8f#
=2
8g
8e
8d
4r}
{8a
=3
8.a
16a
8a
8a
8g
8f#
=4
8g
8e
8d}
{8g
8g
8g
=5
8d
8d
8d
8g
8g
8g
=6
8d
8d}
{16d
16b
8b
8b
8b
=7
8b
8a
8g
8a
8b
8a
=8
4.g
4r}
==
!!!AGN: Ballade, Jagd, Flucht, Verfuehrung
!! Dritte Zeile = Refrain auf sinnfreie Silben.
!!!ONB: ESAC (Essen Associative Code) Database: BALLADE
!!!AMT: compound duple
!!!AIN: vox
!!!EED: Helmut Schaffrath
!!!EEV: 1.0
*-
